X: 3
T: Baidin Fheilimi
R: slide
M: 12/8
L: 1/8
K: Dmaj
|: A2 D F>ED ABc d2 B | A2 D F>ED GEE E3 |
A2 D F>ED ABc d2B | d2 B A>BG FDD D2 A ||
|: d2e f2d g2e f>ed | B2d d>cB A>BG F>ED |
d2e f2d g2e f>ed | B2d ABG FDD D3 ||


Tune 3256	Setting 16324

